!!!COM: Louise Reichardt
!!!CNT: Deutsch
!!!TXO: Deutsch
!!!OTL: Er besucht den Klostergarten und den Kirchoff, u2ber den letztern findet sich folgendes Gedicht
!!!LYR: Novalis (Georg Friedrich Freiherr von Hardenberg)
!!!OPR: 
!!!OPS: No opus information available
!!!ONM: No. 20
!!!ENC: Ben Fuhrman
!!!YOR: Louise Reichardt: Songs
!!!YOR: New York, Da Capo Press, 1981
!!!ODT: 1800 - 1826
!!NB: Only vocal melody encoded.
!!NB: First instance of melodic material only encoded.
!!created: 2/18/10 2:35PM
!!proofed and posted: 2/18/10 2:35PM
**kern	**silbe
*clef G2	*
*k[b-e-a-]	*
*M4/4	*
*MM[Langsam und schauerlich]	*
{8.g	{Lobt
16g	doch
=1	=1
4g	un-
4g	-sre
4g	stil-
4g	-len
=2	=2
(4g	Fe-
Gq)	|
4G	-ste,
4r	.
8.g	un-
16g	-sre
=3	=3
4g	Ga2r-
4g	-ten
4g	un-
4g	-sre
=4	=4
(4g	Zim-
Gq)	|
4G}	-mer}
4r	.
{8.d	das
16d	be-
=5	=5
4.e-	-que-
8e-	-me
4.f	Haus-
8c	-ge-
=6	=6
4e-	-ra2-
4d	-the
4.g	un-
8f	-sre
=7	=7
2f	Hab
2An	und
=8	=8
2.B-}	Gut.}
{8.f	{Ta2g-
16f	-lich
=9	=9
4g-	kom-
4An	-men
4An	neu-
4An	-e
=10	=10
4c	Gu2s-
4B-	-te,
4r	.
8.f	die-
16f	-se
=11	=11
4g-	fru2h
4An	die
4An	an-
4An	-dern
=12	=12
4c	spa2-
4B-}	-ter;}
4r	.
{8B-	{auf
8B-	den
=13	=13
(4e-	wei-
8B-)	|
8B-	-ten
(4f	Heer-
8B-)	|
8B-	-den
=14	=14
4.g	im-
8f	-mer
8e-	lo-
8d	-dert
8c	neu-
8f	-e
=15	=15
(2.B-S	Le-
8c)	|
8d-	-bens-
=16	=16
2.e-}	-gluth.}
4r	.
==	==
*-	*-
